icons/text-sort-ascending.svg

<svg width="16" height="16" viewBox="0 0 16 16" fill="#f4f4f7" fill-opacity="context-fill-opacity"
    xmlns="http://www.w3.org/2000/svg">
    <path
        d="M5.00007 1C5.20191 1 5.38396 1.12137 5.46159 1.30769L7.96154 7.30769C8.06775 7.56259 7.94721 7.85533 7.69231 7.96154C7.43742 8.06775 7.14469 7.94721 7.03848 7.69231L6.33329 5.99982H3.66684L2.96165 7.69231C2.85544 7.94721 2.56271 8.06775 2.30782 7.96154C2.05292 7.85533 1.93238 7.56259 2.03859 7.30769L4.53854 1.30769C4.61617 1.12137 4.79822 1 5.00007 1ZM5.00007 2.8L4.08349 4.99982H5.91664L5.00007 2.8ZM3.00047 8.99982C2.72433 8.99982 2.50048 9.22367 2.50048 9.49982C2.50048 9.77596 2.72433 9.99982 3.00047 9.99982H5.54025L2.59087 14.2131C2.48395 14.3658 2.47089 14.5653 2.55699 14.7307C2.64308 14.8961 2.81403 14.9998 3.00047 14.9998H6.50039C6.77653 14.9998 7.00038 14.776 7.00038 14.4998C7.00038 14.2237 6.77653 13.9998 6.50039 13.9998H3.96081L6.91019 9.78656C7.0171 9.63382 7.03017 9.43429 6.94407 9.26892C6.85797 9.10355 6.68702 8.99982 6.50059 8.99982H3.00047ZM8.14732 11.1464C8.34259 10.9512 8.65917 10.9512 8.85441 11.1465L11.0003 13.2928L11.0003 1.5C11.0003 1.22386 11.2241 1 11.5003 1C11.7764 1 12.0003 1.22386 12.0003 1.5L12.0003 13.2928L14.1465 11.1465C14.3417 10.9512 14.6583 10.9512 14.8535 11.1464C15.0488 11.3417 15.0488 11.6583 14.8536 11.8535L11.8538 14.8535C11.7601 14.9473 11.6329 15 11.5003 15C11.3676 15 11.2405 14.9473 11.1467 14.8535L8.14726 11.8535C7.95202 11.6582 7.95205 11.3417 8.14732 11.1464Z" />
</svg>

<svg xmlns="http://www.w3.org/2000/svg" width="32" height="16" fill="#f4f4f7" fill-opacity="context-fill-opacity">
    <path
        d="M5 1a.5.5 0 0 1 .462.308l2.5 6a.5.5 0 0 1-.924.384L6.333 6H3.667l-.705 1.692a.5.5 0 1 1-.923-.384l2.5-6A.5.5 0 0 1 5 1Zm0 1.8L4.083 5h1.834L5 2.8ZM3 9a.5.5 0 1 0 0 1h2.54l-2.95 4.213A.5.5 0 0 0 3 15h3.5a.5.5 0 1 0 0-1H3.96l2.95-4.213A.5.5 0 0 0 6.5 9H3Zm5.147 2.146a.5.5 0 0 1 .707 0L11 13.293V1.5a.5.5 0 1 1 1 0v11.793l2.146-2.146a.5.5 0 1 1 .708.707l-3 3a.5.5 0 0 1-.707 0l-3-3a.5.5 0 0 1 0-.708Z" />
</svg>
